static/assets/images/icons/telescope.svg

<svg width="256" height="256" viewBox="0 0 256 256" fill="none" xmlns="http://www.w3.org/2000/svg">
<path d="M61.9924 131.798C61.0421 130.152 59.4769 128.951 57.6411 128.459C55.8053 127.967 53.8491 128.223 52.2026 129.173L29.9303 142.016C27.8451 143.21 26.0237 144.815 24.576 146.733C23.1283 148.65 22.0843 150.842 21.507 153.174C20.3958 157.798 21.1268 162.674 23.5456 166.769L25.4991 170.147C27.8772 174.258 31.7907 177.257 36.3795 178.485C40.9683 179.713 45.857 179.07 49.9714 176.696L72.2258 163.871C73.0418 163.401 73.7572 162.775 74.331 162.028C74.9048 161.281 75.3259 160.429 75.5702 159.52C75.8144 158.61 75.877 157.662 75.7545 156.728C75.6319 155.795 75.3265 154.894 74.8558 154.079L61.9924 131.798Z" fill="black"/>
<path d="M185.33 217.266L143.16 133.59C143.058 133.385 143.037 133.149 143.103 132.93C143.169 132.711 143.316 132.526 143.514 132.412L147.233 130.266C148.049 129.795 148.764 129.169 149.337 128.422C149.91 127.675 150.331 126.823 150.575 125.914C150.819 125.004 150.881 124.056 150.758 123.122C150.635 122.189 150.33 121.289 149.859 120.474L128.563 83.5941C128.093 82.7782 127.466 82.063 126.72 81.4893C125.973 80.9156 125.12 80.4946 124.211 80.2504C123.301 80.0062 122.353 79.9436 121.419 80.0662C120.485 80.1887 119.584 80.494 118.769 80.9646L80.0666 103.272C78.0235 104.443 76.2329 106.007 74.7986 107.874C73.3643 109.74 72.3147 111.873 71.7105 114.149C71.2995 115.569 71.0928 117.042 71.0967 118.521C71.1236 121.925 75.2187 128.689 79.2153 135.668C83.5121 143.171 87.8357 150.845 91.0168 152.757C93.042 153.976 96.6174 154.952 99.6238 154.952H100L64.4612 231.82C64.0652 232.675 63.8416 233.599 63.8032 234.54C63.7647 235.481 63.9121 236.421 64.237 237.305C64.5619 238.189 65.0579 239 65.6967 239.692C66.3354 240.385 67.1043 240.944 67.9595 241.339C68.8147 241.734 69.7394 241.957 70.6807 241.994C71.622 242.032 72.5614 241.883 73.4453 241.558C74.3292 241.232 75.1402 240.735 75.832 240.096C76.5238 239.457 77.0827 238.687 77.4769 237.832L119.45 147.055C119.759 146.383 120.269 145.824 120.91 145.456L129.517 140.493C129.623 140.432 129.74 140.394 129.861 140.38C129.982 140.366 130.105 140.378 130.221 140.413C130.338 140.448 130.446 140.507 130.539 140.585C130.632 140.663 130.708 140.76 130.763 140.869L172.525 223.739C172.949 224.58 173.534 225.329 174.247 225.943C174.96 226.558 175.788 227.026 176.682 227.321C177.576 227.616 178.519 227.732 179.458 227.662C180.397 227.593 181.313 227.339 182.154 226.915C182.995 226.492 183.744 225.907 184.358 225.194C184.973 224.481 185.441 223.654 185.736 222.76C186.031 221.866 186.147 220.923 186.078 219.984C186.008 219.045 185.754 218.129 185.33 217.289V217.266ZM233.437 71.6562L212.773 35.9368C210.388 31.8315 206.474 28.8377 201.887 27.6104C197.3 26.383 192.413 27.0221 188.296 29.3878L146.476 53.4784C144.432 54.6481 142.641 56.2118 141.207 58.0788C139.773 59.9458 138.723 62.079 138.12 64.3546C137.526 66.2734 137.333 68.2934 137.551 70.29C138.33 75.9431 143.375 83.9076 149.384 94.4299C155.468 105.06 162.337 117.042 165.93 119.636C168.968 121.782 172.596 122.936 176.316 122.937C179.449 122.939 182.528 122.113 185.241 120.545L227.07 96.4412C229.151 95.2493 230.969 93.6492 232.416 91.7371C233.863 89.825 234.908 87.6403 235.489 85.3142C236.609 80.668 235.872 75.7685 233.437 71.6562Z" fill="black"/>
</svg>

<svg xmlns="http://www.w3.org/2000/svg" fill="none" viewBox="0 0 256 256"><path fill="#000" d="M61.992 131.798a7.166 7.166 0 0 0-9.79-2.625L29.93 142.016a17.77 17.77 0 0 0-8.423 11.158 18.32 18.32 0 0 0 2.039 13.595l1.953 3.378a17.92 17.92 0 0 0 24.472 6.549l22.255-12.825a7.16 7.16 0 0 0 3.344-4.351 7.17 7.17 0 0 0-.714-5.441z"/><path fill="#000" d="m185.33 217.266-42.17-83.676a.9.9 0 0 1 .354-1.178l3.719-2.146a7.16 7.16 0 0 0 3.525-7.144 7.2 7.2 0 0 0-.899-2.648l-21.296-36.88a7.17 7.17 0 0 0-4.352-3.344 7.17 7.17 0 0 0-5.442.715l-38.702 22.307a17.8 17.8 0 0 0-8.356 10.877 15.6 15.6 0 0 0-.614 4.372c.027 3.404 4.122 10.168 8.118 17.147 4.297 7.503 8.62 15.177 11.802 17.089 2.025 1.219 5.6 2.195 8.607 2.195H100L64.461 231.82a7.167 7.167 0 0 0 8.984 9.738 7.18 7.18 0 0 0 4.032-3.726l41.973-90.777a3.56 3.56 0 0 1 1.46-1.599l8.607-4.963a.895.895 0 0 1 1.246.376l41.762 82.87a7.17 7.17 0 0 0 4.157 3.582 7.16 7.16 0 0 0 5.472-.406 7.16 7.16 0 0 0 3.176-9.626zm48.107-145.61-20.664-35.72a17.957 17.957 0 0 0-24.477-6.548l-41.82 24.09a17.78 17.78 0 0 0-8.356 10.877 14.7 14.7 0 0 0-.569 5.935c.779 5.653 5.824 13.618 11.833 24.14 6.084 10.63 12.953 22.612 16.546 25.206a18 18 0 0 0 10.386 3.301 17.8 17.8 0 0 0 8.925-2.392l41.829-24.104a17.8 17.8 0 0 0 8.419-11.127 18.36 18.36 0 0 0-2.052-13.658"/></svg>
